X:1162 
T:The cobbler 
C:James Clague 
C:Traditional
O:Isle of Man
Z:Clague collection
N:In the manuscript the tune is written as if in C, first note B
B:Kiaull Vannin #162 
M:2/4 
L:1/4
Q:60 
K:D 
c|d/d/ B|c A|B G|A c|d B|c A|B/ G3/2-|G c/c/| 
d/d/ B/B/|c/c/ A/A/|B/B/ G|A c/c/|d B|c A|B<|-|A|| 

